public/icons/weather-icons/Clear.svg

<svg width="200" height="200" viewBox="0 0 200 200" fill="none" xmlns="http://www.w3.org/2000/svg">
<g filter="url(#filter0_d_1506_805)">
<path d="M99.5899 151.165C128.074 151.165 151.165 128.074 151.165 99.5899C151.165 71.1056 128.074 48.0144 99.5899 48.0144C71.1056 48.0144 48.0144 71.1056 48.0144 99.5899C48.0144 128.074 71.1056 151.165 99.5899 151.165Z" fill="#FA9E42"/>
</g>
<path fill-rule="evenodd" clip-rule="evenodd" d="M99.0186 30.0023C99.2089 30.0008 99.3993 30 99.5899 30C99.7805 30 99.971 30.0008 100.161 30.0023C102.923 30.0245 105.143 32.2811 105.121 35.0424C105.099 37.8037 102.842 40.0242 100.081 40.002C99.9173 40.0007 99.7537 40 99.5899 40C99.4262 40 99.2626 40.0007 99.0992 40.002C96.3378 40.0242 94.0813 37.8037 94.0591 35.0424C94.0368 32.2811 96.2573 30.0245 99.0186 30.0023ZM127.083 40.9127C128.447 38.5112 131.499 37.6697 133.9 39.033C134.23 39.2205 134.559 39.4106 134.886 39.6033C137.264 41.0057 138.056 44.071 136.653 46.4498C135.251 48.8286 132.186 49.62 129.807 48.2176C129.527 48.0526 129.246 47.8898 128.963 47.7293C126.562 46.366 125.72 43.3141 127.083 40.9127ZM72.0965 40.9127C73.4598 43.3141 72.6183 46.366 70.2168 47.7293C69.9341 47.8898 69.6528 48.0526 69.373 48.2176C66.9942 49.62 63.9289 48.8286 62.5265 46.4498C61.124 44.071 61.9155 41.0057 64.2942 39.6033C64.6211 39.4106 64.9496 39.2205 65.2799 39.033C67.6813 37.6697 70.7332 38.5112 72.0965 40.9127ZM152.73 62.5265C155.109 61.124 158.174 61.9155 159.577 64.2942C159.769 64.6211 159.959 64.9496 160.147 65.2799C161.51 67.6813 160.669 70.7332 158.267 72.0965C155.866 73.4598 152.814 72.6183 151.451 70.2168C151.29 69.9341 151.127 69.6528 150.962 69.373C149.56 66.9942 150.351 63.9289 152.73 62.5265ZM46.4498 62.5265C48.8286 63.9289 49.62 66.9942 48.2176 69.373C48.0526 69.6528 47.8898 69.9341 47.7293 70.2169C46.366 72.6183 43.3141 73.4598 40.9127 72.0965C38.5112 70.7332 37.6697 67.6813 39.033 65.2799C39.2205 64.9496 39.4106 64.6211 39.6033 64.2943C41.0057 61.9155 44.071 61.124 46.4498 62.5265ZM164.137 94.0591C166.899 94.0368 169.155 96.2573 169.178 99.0186C169.179 99.2089 169.18 99.3993 169.18 99.5899C169.18 99.7805 169.179 99.971 169.178 100.161C169.155 102.923 166.899 105.143 164.137 105.121C161.376 105.099 159.156 102.842 159.178 100.081C159.179 99.9173 159.18 99.7537 159.18 99.5899C159.18 99.4262 159.179 99.2626 159.178 99.0992C159.156 96.3378 161.376 94.0813 164.137 94.0591ZM35.0424 94.0591C37.8037 94.0813 40.0242 96.3378 40.002 99.0992C40.0007 99.2626 40 99.4262 40 99.5899C40 99.7537 40.0007 99.9173 40.002 100.081C40.0242 102.842 37.8037 105.099 35.0424 105.121C32.2811 105.143 30.0245 102.923 30.0023 100.161C30.0008 99.971 30 99.7805 30 99.5899C30 99.3993 30.0008 99.2089 30.0023 99.0186C30.0245 96.2573 32.2811 94.0368 35.0424 94.0591ZM158.267 127.083C160.669 128.447 161.51 131.499 160.147 133.9C159.959 134.23 159.769 134.559 159.577 134.886C158.174 137.264 155.109 138.056 152.73 136.653C150.351 135.251 149.56 132.186 150.962 129.807C151.127 129.527 151.29 129.246 151.451 128.963C152.814 126.562 155.866 125.72 158.267 127.083ZM40.9127 127.083C43.3141 125.72 46.366 126.562 47.7293 128.963C47.8898 129.246 48.0526 129.527 48.2176 129.807C49.62 132.186 48.8286 135.251 46.4498 136.653C44.071 138.056 41.0057 137.264 39.6033 134.886C39.4106 134.559 39.2205 134.23 39.033 133.9C37.6697 131.499 38.5112 128.447 40.9127 127.083ZM136.653 152.73C138.056 155.109 137.264 158.174 134.886 159.577C134.559 159.769 134.23 159.959 133.9 160.147C131.499 161.51 128.447 160.669 127.083 158.267C125.72 155.866 126.562 152.814 128.963 151.451C129.246 151.29 129.527 151.127 129.807 150.962C132.186 149.56 135.251 150.351 136.653 152.73ZM62.5265 152.73C63.9289 150.351 66.9942 149.56 69.373 150.962C69.6528 151.127 69.9341 151.29 70.2169 151.451C72.6183 152.814 73.4598 155.866 72.0965 158.267C70.7332 160.669 67.6813 161.51 65.2799 160.147C64.9496 159.959 64.6211 159.769 64.2943 159.577C61.9155 158.174 61.124 155.109 62.5265 152.73ZM94.0591 164.137C94.0813 161.376 96.3378 159.156 99.0992 159.178C99.2626 159.179 99.4262 159.18 99.5899 159.18C99.7537 159.18 99.9173 159.179 100.081 159.178C102.842 159.156 105.099 161.376 105.121 164.137C105.143 166.899 102.923 169.155 100.161 169.178C99.971 169.179 99.7805 169.18 99.5899 169.18C99.4976 169.18 99.4054 169.18 99.3131 169.179C99.2149 169.179 99.1168 169.178 99.0186 169.178C96.2573 169.155 94.0368 166.899 94.0591 164.137Z" fill="#FA9E42"/>
<g filter="url(#filter1_f_1506_805)">
<path d="M96.0023 93.1149C114.044 83.532 124.25 67.4419 118.798 57.1767C113.346 46.9116 94.2998 46.3585 76.2578 55.9414C58.2158 65.5243 48.0098 81.6143 53.4621 91.8795C58.9144 102.145 77.9603 102.698 96.0023 93.1149Z" fill="#F8E36F"/>
</g>
<defs>
<filter id="filter0_d_1506_805" x="28.0144" y="20.0144" width="163.151" height="163.151" filterUnits="userSpaceOnUse" color-interpolation-filters="sRGB">
<feFlood flood-opacity="0" result="BackgroundImageFix"/>
<feColorMatrix in="SourceAlpha" type="matrix" values="0 0 0 0 0 0 0 0 0 0 0 0 0 0 0 0 0 0 127 0" result="hardAlpha"/>
<feOffset dx="10" dy="2"/>
<feGaussianBlur stdDeviation="15"/>
<feColorMatrix type="matrix" values="0 0 0 0 0 0 0 0 0 0 0 0 0 0 0 0 0 0 0.25 0"/>
<feBlend mode="normal" in2="BackgroundImageFix" result="effect1_dropShadow_1506_805"/>
<feBlend mode="normal" in="SourceGraphic" in2="effect1_dropShadow_1506_805" result="shape"/>
</filter>
<filter id="filter1_f_1506_805" x="31.994" y="29.1009" width="108.272" height="90.8544" filterUnits="userSpaceOnUse" color-interpolation-filters="sRGB">
<feFlood flood-opacity="0" result="BackgroundImageFix"/>
<feBlend mode="normal" in="SourceGraphic" in2="BackgroundImageFix" result="shape"/>
<feGaussianBlur stdDeviation="10" result="effect1_foregroundBlur_1506_805"/>
</filter>
</defs>
</svg>

<svg xmlns="http://www.w3.org/2000/svg" width="200" height="200" fill="none"><g filter="url(#a)"><path fill="#FA9E42" d="M99.59 151.165c28.484 0 51.575-23.091 51.575-51.575S128.074 48.014 99.59 48.014 48.014 71.106 48.014 99.59s23.092 51.575 51.576 51.575"/></g><path fill="#FA9E42" fill-rule="evenodd" d="M99.019 30.002a73 73 0 0 1 1.142 0 5 5 0 1 1-.08 10 62 62 0 0 0-.982 0 5 5 0 0 1-.08-10m28.064 10.91a5 5 0 0 1 6.817-1.879q.495.282.986.57a5 5 0 0 1-5.079 8.615q-.42-.248-.844-.489a5 5 0 0 1-1.88-6.816m-54.986 0a5 5 0 0 1-1.88 6.817q-.424.24-.844.489a5 5 0 0 1-5.079-8.615q.49-.289.986-.57a5 5 0 0 1 6.817 1.88m80.633 21.615a5 5 0 0 1 6.847 1.767q.288.49.57.986a5 5 0 0 1-8.696 4.937 65 65 0 0 0-.489-.844 5 5 0 0 1 1.768-6.847m-106.28 0a5 5 0 0 1 1.768 6.846q-.248.42-.489.844a5 5 0 0 1-8.696-4.937q.282-.495.57-.986a5 5 0 0 1 6.847-1.767m117.687 31.532a5 5 0 0 1 5.041 4.96 109 109 0 0 1 0 1.142 5 5 0 0 1-10-.08l.002-.491-.002-.49a5 5 0 0 1 4.959-5.04m-129.095 0a5 5 0 0 1 4.96 5.04 62 62 0 0 0 0 .982 5 5 0 1 1-10 .08 72 72 0 0 1 0-1.142 5 5 0 0 1 5.04-4.96m123.225 33.024a5 5 0 0 1 1.88 6.817q-.282.495-.57.986a5 5 0 0 1-8.615-5.079q.248-.42.489-.844a5 5 0 0 1 6.816-1.88m-117.354 0a5 5 0 0 1 6.816 1.88q.24.424.489.844a5 5 0 0 1-8.614 5.079 72 72 0 0 1-.571-.986 5 5 0 0 1 1.88-6.817m95.74 25.647a5 5 0 0 1-1.767 6.847q-.49.288-.986.57a5 5 0 0 1-4.937-8.696q.424-.242.844-.489a5 5 0 0 1 6.846 1.768m-74.126 0a5 5 0 0 1 6.846-1.768q.42.248.844.489a5 5 0 1 1-4.937 8.696 83 83 0 0 1-.986-.57 5 5 0 0 1-1.767-6.847m31.532 11.407a5 5 0 0 1 5.04-4.959l.49.002.492-.002a5 5 0 1 1 .08 10l-.571.002-.277-.001-.294-.001a5 5 0 0 1-4.96-5.041" clip-rule="evenodd"/><g filter="url(#b)"><path fill="#F8E36F" d="M96.002 93.115c18.042-9.583 28.248-25.673 22.796-35.938S94.3 46.359 76.258 55.94C58.216 65.524 48.01 81.614 53.462 91.88s24.498 10.819 42.54 1.236"/></g><defs><filter id="a" width="163.151" height="163.151" x="28.014" y="20.014" color-interpolation-filters="sRGB" filterUnits="userSpaceOnUse"><feFlood flood-opacity="0" result="BackgroundImageFix"/><feColorMatrix in="SourceAlpha" result="hardAlpha" values="0 0 0 0 0 0 0 0 0 0 0 0 0 0 0 0 0 0 127 0"/><feOffset dx="10" dy="2"/><feGaussianBlur stdDeviation="15"/><feColorMatrix values="0 0 0 0 0 0 0 0 0 0 0 0 0 0 0 0 0 0 0.25 0"/><feBlend in2="BackgroundImageFix" result="effect1_dropShadow_1506_805"/><feBlend in="SourceGraphic" in2="effect1_dropShadow_1506_805" result="shape"/></filter><filter id="b" width="108.272" height="90.854" x="31.994" y="29.101" color-interpolation-filters="sRGB" filterUnits="userSpaceOnUse"><feFlood flood-opacity="0" result="BackgroundImageFix"/><feBlend in="SourceGraphic" in2="BackgroundImageFix" result="shape"/><feGaussianBlur result="effect1_foregroundBlur_1506_805" stdDeviation="10"/></filter></defs></svg>
